app/img/azamat/candidate/facebook.svg

<svg width="10" height="18" viewBox="0 0 10 18" fill="none" xmlns="http://www.w3.org/2000/svg">
<path d="M10.0002 0.666992H7.50016C6.39509 0.666992 5.33529 1.10598 4.55388 1.88738C3.77248 2.66878 3.3335 3.72859 3.3335 4.83366V7.33366H0.833496V10.667H3.3335V17.3337H6.66683V10.667H9.16683L10.0002 7.33366H6.66683V4.83366C6.66683 4.61265 6.75463 4.40068 6.91091 4.2444C7.06719 4.08812 7.27915 4.00033 7.50016 4.00033H10.0002V0.666992Z" fill="#575757"/>
</svg>

<svg width="10" height="18" fill="none" xmlns="http://www.w3.org/2000/svg"><path d="M10 .667H7.5a4.167 4.167 0 0 0-4.167 4.167v2.5h-2.5v3.333h2.5v6.667h3.334v-6.667h2.5L10 7.334H6.667v-2.5A.833.833 0 0 1 7.5 4H10V.667Z" fill="#575757"/></svg>
